flaticon/emoticons/girl.svg

<svg xmlns="http://www.w3.org/2000/svg" width="32" height="32" viewBox="0 0 24 24">
    <path d="M16.527344 13.601562C16.527344 14.042969 16.171875 14.398438 15.730469 14.398438 15.289062 14.398438 14.929688 14.042969 14.929688 13.601562 14.929688 13.15625 15.289062 12.800781 15.730469 12.800781 16.171875 12.800781 16.527344 13.15625 16.527344 13.601562zM9.328125 13.601562C9.328125 14.042969 8.972656 14.398438 8.527344 14.398438 8.085938 14.398438 7.730469 14.042969 7.730469 13.601562 7.730469 13.15625 8.085938 12.800781 8.527344 12.800781 8.972656 12.800781 9.328125 13.15625 9.328125 13.601562zM14.46875 18.171875C14.457031 18.1875 13.4375 19.632812 11.960938 19.855469 11.171875 19.972656 10.375 19.71875 9.589844 19.097656 9.417969 18.964844 9.167969 18.992188 9.03125 19.164062 8.894531 19.339844 8.921875 19.589844 9.09375 19.726562 9.902344 20.363281 10.734375 20.683594 11.578125 20.683594 11.746094 20.683594 11.914062 20.671875 12.082031 20.644531 13.90625 20.371094 15.078125 18.699219 15.125 18.625 15.253906 18.445312 15.207031 18.195312 15.023438 18.070312 14.84375 17.945312 14.59375 17.992188 14.46875 18.171875zM14.46875 18.171875"/>
    <path d="M 23.761719 17.863281 C 22.921875 15.980469 22.65625 12.417969 22.574219 10.460938 C 22.496094 8.613281 21.945312 6.878906 20.980469 5.441406 C 19.257812 2.871094 17.34375 1.824219 16.054688 1.261719 C 13.726562 0.242188 11.128906 0.125 8.710938 0.917969 L 8.390625 0.597656 C 7.953125 0.160156 7.421875 -0.0546875 6.933594 0.0117188 C 6.515625 0.0664062 6.152344 0.324219 5.914062 0.738281 C 5.890625 0.773438 5.875 0.8125 5.867188 0.855469 L 5.515625 2.542969 C 4.585938 3.222656 3.816406 4.035156 3.179688 5.027344 C 3.144531 5.082031 3.113281 5.136719 3.082031 5.195312 L 1.0625 5.554688 C 1.023438 5.558594 0.988281 5.574219 0.953125 5.589844 C 0.503906 5.8125 0.21875 6.179688 0.148438 6.617188 C 0.0664062 7.125 0.273438 7.667969 0.722656 8.117188 L 1.78125 9.175781 C 1.75 9.476562 1.730469 9.761719 1.722656 10.023438 C 1.683594 12.128906 1.484375 15.960938 0.632812 17.933594 C 0.363281 18.5625 0.648438 19.296875 1.269531 19.574219 C 1.628906 19.730469 2.3125 19.824219 3.171875 19.929688 C 3.226562 19.9375 3.277344 19.945312 3.328125 19.953125 L 3.328125 20.398438 C 3.328125 21.464844 4.265625 22.398438 5.335938 22.398438 L 6.339844 22.398438 L 6.339844 23.078125 C 6.339844 23.585938 6.753906 24 7.261719 24 L 16.617188 24 C 17.125 24 17.539062 23.585938 17.539062 23.078125 L 17.539062 22.398438 L 18.855469 22.398438 C 19.941406 22.398438 20.929688 21.445312 20.929688 20.398438 L 20.929688 19.9375 C 21.144531 19.902344 21.371094 19.867188 21.59375 19.835938 C 22.171875 19.753906 22.71875 19.679688 23.074219 19.539062 C 23.398438 19.414062 23.644531 19.171875 23.777344 18.851562 C 23.90625 18.53125 23.902344 18.179688 23.761719 17.863281 Z M 7.039062 0.804688 C 7.277344 0.777344 7.570312 0.90625 7.824219 1.164062 L 8.320312 1.65625 L 9.664062 3.003906 C 9.925781 3.261719 10.054688 3.5625 10.015625 3.808594 C 9.988281 3.980469 9.878906 4.117188 9.6875 4.226562 L 7.351562 4.65625 L 7.292969 4.597656 L 7.945312 4.378906 C 8.15625 4.308594 8.269531 4.082031 8.199219 3.871094 C 8.128906 3.664062 7.902344 3.550781 7.691406 3.621094 L 7.015625 3.84375 L 7.308594 3.351562 C 7.421875 3.164062 7.363281 2.917969 7.171875 2.804688 C 6.984375 2.691406 6.738281 2.75 6.625 2.941406 L 6.253906 3.558594 L 6.144531 3.449219 L 6.636719 1.085938 C 6.746094 0.921875 6.878906 0.824219 7.039062 0.804688 Z M 5.476562 6.628906 L 4.125 5.277344 L 5.476562 3.925781 L 6.828125 5.277344 Z M 0.9375 6.746094 C 0.964844 6.574219 1.074219 6.4375 1.261719 6.328125 L 3.527344 5.925781 L 3.613281 5.910156 L 3.757812 6.054688 L 3.140625 6.425781 C 2.949219 6.539062 2.890625 6.785156 3.003906 6.972656 C 3.078125 7.097656 3.210938 7.167969 3.347656 7.167969 C 3.414062 7.167969 3.488281 7.148438 3.550781 7.109375 L 4.042969 6.816406 L 3.820312 7.492188 C 3.75 7.703125 3.863281 7.929688 4.070312 8 C 4.113281 8.011719 4.15625 8.019531 4.199219 8.019531 C 4.363281 8.019531 4.519531 7.914062 4.578125 7.746094 L 4.792969 7.09375 L 4.820312 7.121094 L 4.324219 9.449219 C 4.210938 9.632812 4.066406 9.734375 3.902344 9.753906 C 3.671875 9.777344 3.378906 9.644531 3.128906 9.390625 L 2.480469 8.742188 L 1.285156 7.550781 C 1.027344 7.289062 0.894531 6.988281 0.9375 6.746094 Z M 16.738281 23.078125 C 16.738281 23.144531 16.683594 23.199219 16.617188 23.199219 L 7.261719 23.199219 C 7.191406 23.199219 7.136719 23.144531 7.136719 23.078125 L 7.136719 22.398438 L 16.738281 22.398438 Z M 20.128906 20.398438 C 20.128906 21.003906 19.5 21.601562 18.855469 21.601562 L 5.335938 21.601562 C 4.714844 21.601562 4.128906 21.015625 4.128906 20.398438 L 4.128906 11.578125 C 4.230469 11.570312 4.347656 11.5625 4.484375 11.550781 C 4.550781 11.542969 4.621094 11.539062 4.695312 11.53125 C 5.296875 11.476562 6.128906 11.378906 7.074219 11.210938 C 6.269531 11.703125 5.730469 12.589844 5.730469 13.601562 C 5.730469 15.144531 6.984375 16.398438 8.527344 16.398438 C 10.074219 16.398438 11.328125 15.144531 11.328125 13.601562 C 11.328125 12.175781 10.257812 11 8.878906 10.824219 C 10.953125 10.296875 13.160156 9.414062 14.457031 7.945312 C 14.878906 8.722656 15.726562 10.113281 16.863281 11.042969 C 16.515625 10.886719 16.132812 10.800781 15.730469 10.800781 C 14.183594 10.800781 12.929688 12.054688 12.929688 13.601562 C 12.929688 15.144531 14.183594 16.398438 15.730469 16.398438 C 17.273438 16.398438 18.527344 15.144531 18.527344 13.601562 C 18.527344 12.8125 18.199219 12.097656 17.671875 11.589844 C 17.871094 11.695312 18.074219 11.785156 18.28125 11.851562 C 18.90625 12.046875 19.527344 12.039062 20.128906 11.828125 Z M 8.527344 11.601562 C 9.632812 11.601562 10.527344 12.496094 10.527344 13.601562 C 10.527344 14.703125 9.632812 15.601562 8.527344 15.601562 C 7.425781 15.601562 6.527344 14.703125 6.527344 13.601562 C 6.527344 12.496094 7.425781 11.601562 8.527344 11.601562 Z M 17.730469 13.601562 C 17.730469 14.703125 16.832031 15.601562 15.730469 15.601562 C 14.625 15.601562 13.730469 14.703125 13.730469 13.601562 C 13.730469 12.496094 14.625 11.601562 15.730469 11.601562 C 16.832031 11.601562 17.730469 12.496094 17.730469 13.601562 Z M 23.035156 18.550781 C 22.988281 18.664062 22.898438 18.75 22.785156 18.792969 C 22.515625 18.898438 21.988281 18.972656 21.480469 19.042969 C 21.296875 19.070312 21.113281 19.097656 20.929688 19.125 L 20.929688 11.199219 C 20.929688 11.054688 20.851562 10.925781 20.726562 10.851562 C 20.601562 10.78125 20.449219 10.78125 20.324219 10.855469 C 19.730469 11.207031 19.144531 11.28125 18.523438 11.085938 C 16.464844 10.4375 14.910156 7.070312 14.894531 7.035156 C 14.832031 6.902344 14.707031 6.8125 14.5625 6.800781 C 14.417969 6.789062 14.277344 6.855469 14.199219 6.976562 C 11.882812 10.421875 3.792969 10.796875 3.710938 10.800781 C 3.5 10.808594 3.328125 10.984375 3.328125 11.199219 L 3.328125 19.144531 C 3.308594 19.140625 3.289062 19.140625 3.269531 19.136719 C 2.710938 19.066406 1.871094 18.960938 1.59375 18.839844 C 1.367188 18.738281 1.269531 18.480469 1.367188 18.25 C 2.273438 16.152344 2.480469 12.203125 2.523438 10.039062 C 2.523438 10 2.523438 9.960938 2.527344 9.921875 L 2.5625 9.957031 C 2.652344 10.046875 2.746094 10.125 2.839844 10.195312 C 2.855469 10.203125 2.863281 10.210938 2.878906 10.222656 C 2.96875 10.285156 3.058594 10.335938 3.152344 10.382812 C 3.171875 10.394531 3.191406 10.402344 3.210938 10.410156 C 3.300781 10.453125 3.394531 10.484375 3.484375 10.507812 C 3.507812 10.511719 3.53125 10.519531 3.550781 10.523438 C 3.644531 10.542969 3.738281 10.554688 3.828125 10.554688 C 3.835938 10.554688 3.839844 10.558594 3.847656 10.558594 C 3.894531 10.558594 3.941406 10.554688 3.988281 10.550781 C 4.101562 10.535156 4.230469 10.507812 4.367188 10.445312 C 4.578125 10.355469 4.800781 10.1875 4.988281 9.898438 C 4.992188 9.890625 4.996094 9.886719 5.003906 9.878906 C 5.035156 9.824219 5.066406 9.761719 5.089844 9.695312 C 5.09375 9.679688 5.101562 9.664062 5.105469 9.648438 L 5.542969 7.582031 C 5.625 7.566406 5.699219 7.535156 5.757812 7.476562 L 7.675781 5.558594 C 7.722656 5.511719 7.75 5.453125 7.769531 5.390625 L 9.894531 5 C 9.929688 4.992188 9.96875 4.980469 10 4.964844 C 10.449219 4.742188 10.734375 4.375 10.804688 3.9375 C 10.828125 3.808594 10.828125 3.679688 10.8125 3.550781 C 10.8125 3.535156 10.808594 3.519531 10.804688 3.507812 C 10.75 3.132812 10.554688 2.757812 10.230469 2.4375 L 9.351562 1.558594 C 11.453125 0.972656 13.746094 1.121094 15.738281 1.992188 C 16.933594 2.519531 18.710938 3.492188 20.316406 5.886719 C 21.199219 7.199219 21.703125 8.792969 21.777344 10.496094 C 21.878906 12.953125 22.179688 16.285156 23.03125 18.1875 C 23.082031 18.304688 23.085938 18.433594 23.035156 18.550781 Z M 23.035156 18.550781"/>
</svg>

<svg xmlns="http://www.w3.org/2000/svg" width="32" height="32" viewBox="0 0 24 24">
    <path d="M16.527 13.602a.799.799 0 1 1-.797-.8c.442-.001.797.354.797.8zm0 0M9.328 13.602a.796.796 0 0 1-.8.796.795.795 0 0 1-.798-.796c0-.446.356-.801.797-.801.446 0 .801.355.801.8zm0 0M14.469 18.172c-.012.015-1.031 1.46-2.508 1.683-.79.118-1.586-.136-2.371-.757a.401.401 0 0 0-.496.629c.808.636 1.64.957 2.484.957.168 0 .336-.012.504-.04 1.824-.273 2.996-1.945 3.043-2.019a.394.394 0 0 0-.102-.555.4.4 0 0 0-.554.102zm0 0"/>
    <path d="M23.762 17.863c-.84-1.883-1.106-5.445-1.188-7.402-.078-1.848-.629-3.582-1.594-5.02-1.722-2.57-3.636-3.617-4.925-4.18A10.268 10.268 0 0 0 8.71.919l-.32-.32C7.953.16 7.42-.055 6.934.012c-.418.054-.782.312-1.02.726a.308.308 0 0 0-.047.117l-.351 1.688c-.93.68-1.7 1.492-2.336 2.484-.035.055-.067.11-.098.168l-2.02.36a.358.358 0 0 0-.109.035c-.45.223-.734.59-.805 1.027-.082.508.125 1.051.575 1.5L1.78 9.176c-.031.3-.05.586-.058.847-.04 2.106-.239 5.938-1.09 7.91-.27.63.015 1.364.637 1.641.359.156 1.042.25 1.902.356l.156.023v.445c0 1.067.938 2 2.008 2H6.34v.68c0 .508.414.922.922.922h9.355a.924.924 0 0 0 .922-.922v-.68h1.316c1.086 0 2.075-.953 2.075-2v-.46c.215-.036.441-.07.664-.102.578-.082 1.125-.156 1.48-.297a1.23 1.23 0 0 0 .703-.687c.13-.32.125-.672-.015-.989zM7.039.805c.238-.028.531.101.785.36l.496.491 1.344 1.348c.262.258.39.558.352.805-.028.171-.137.308-.329.418l-2.335.43-.059-.06.652-.218A.4.4 0 0 0 8.2 3.87a.402.402 0 0 0-.508-.25l-.675.223.293-.492a.397.397 0 0 0-.137-.547.397.397 0 0 0-.547.136l-.371.618-.11-.11.493-2.363c.11-.164.242-.262.402-.281zM5.477 6.629L4.125 5.277l1.352-1.351 1.351 1.351zm-4.54.117c.028-.172.137-.309.325-.418l2.265-.402.086-.016.145.145-.617.37a.4.4 0 1 0 .207.742c.066.001.14-.019.203-.058l.492-.293-.223.676c-.07.211.043.438.25.508a.405.405 0 0 0 .508-.254l.215-.652.027.027-.496 2.328c-.113.184-.258.285-.422.305-.23.023-.523-.11-.773-.363l-.649-.649-1.195-1.191c-.258-.262-.39-.563-.347-.805zm15.801 16.332a.122.122 0 0 1-.12.121H7.261a.123.123 0 0 1-.125-.12v-.68h9.601zm3.39-2.68c0 .606-.628 1.204-1.273 1.204H5.335c-.62 0-1.206-.586-1.206-1.204v-8.82c.101-.008.219-.015.355-.027.067-.008.137-.012.211-.02a28.582 28.582 0 0 0 2.38-.32A2.8 2.8 0 0 0 5.73 13.6a2.8 2.8 0 0 0 5.598 0 2.805 2.805 0 0 0-2.45-2.777c2.075-.527 4.282-1.41 5.579-2.879.422.778 1.27 2.168 2.406 3.098a2.754 2.754 0 0 0-1.133-.242 2.8 2.8 0 1 0 2.797 2.8c0-.789-.328-1.503-.855-2.011.2.105.402.195.61.262a2.876 2.876 0 0 0 1.847-.024zm-11.6-8.796a1.999 1.999 0 1 1 .002 3.997 1.999 1.999 0 0 1-.003-3.997zm9.202 2c0 1.101-.898 2-2 2a1.999 1.999 0 1 1 2-2zm5.305 4.949a.436.436 0 0 1-.25.242c-.27.105-.797.18-1.305.25l-.55.082v-7.926a.4.4 0 1 0-.605-.344c-.595.352-1.18.426-1.802.23-2.058-.648-3.613-4.015-3.628-4.05a.404.404 0 0 0-.332-.234.393.393 0 0 0-.364.176c-2.316 3.445-10.406 3.82-10.488 3.824a.4.4 0 0 0-.383.398v7.946c-.02-.004-.039-.004-.058-.008-.56-.07-1.399-.176-1.676-.297a.447.447 0 0 1-.227-.59c.906-2.098 1.113-6.047 1.156-8.21 0-.04 0-.08.004-.118l.035.035c.09.09.184.168.278.238.015.008.023.016.039.028a2.168 2.168 0 0 0 .332.187c.09.043.184.074.273.098.024.004.047.012.067.015.094.02.187.032.277.032.008 0 .012.004.02.004.047 0 .093-.004.14-.008.114-.016.242-.043.38-.106a1.4 1.4 0 0 0 .62-.547c.004-.007.008-.011.016-.02.031-.054.062-.116.086-.183.004-.015.012-.03.015-.047l.438-2.066a.4.4 0 0 0 .215-.105l1.918-1.918a.398.398 0 0 0 .094-.168L9.895 5A.478.478 0 0 0 10 4.965c.45-.223.734-.59.805-1.027a1.284 1.284 0 0 0 0-.43c-.055-.375-.25-.75-.575-1.07l-.878-.88a9.623 9.623 0 0 1 6.386.434c1.196.528 2.973 1.5 4.578 3.895.883 1.312 1.387 2.906 1.461 4.61.102 2.456.403 5.788 1.254 7.69.051.118.055.247.004.364zm0 0"/>
</svg>
